X:1
T:Se le pene ch'io sento
T:Luca Marenzio
T:Source : Il secondo Libro delle canzonette alla Napolitana a tre voci---Venetia---G.Vincenti---1587. Editor : André Vierendeels (07/05/17).
T:Notes :  Original clefs : G2, C1, F3 Editorial accidentals above the staff "Seconda impressione" Music collected by Attilio Gualtieri m 7 in S 2 : "G" not dotted in original print 
T:Se le pene ch'io sento
T:©
T:©
C:Luca Marenzio
Z:©
%%score [ 1 2 3 ]
L:1/8
Q:1/4=120
M:4/4
K:F
V:1 treble nm="Soprano 1" snm="S 1"
V:2 treble nm="Soprano 2" snm="S 2"
V:3 bass nm="Bass" snm="B"
V:1
"^1)" z2 de f4 | f2 e2 d4 | d2 e2 c3 c | c2 c2 d4 |[M:2/4] c4 :: z2 B2 |[M:4/4] B6 B2 | B2 c2 d4 | %8
w: Se le pe-|ne ch'io sen-|to, vi- ver mi|fan con- ten-|to,|non|si po-|trian dir pe-|
w: Se del cor|la fe- ri-|ta mi dà gra-|tia'in- fi- ni-|ta,|non|si po-|trian dir ma-|
 d4 z2 d2 | e2 f2 g4- | g2 f2 e4 | d8 | z4 g4 | f3 f e3 e | d4 c2 c2 | B3 B A3 A | G4 F4 | %17
w: ne, sen-|do ca- gion|_ di be-|ne,|fe-|li- ce lo mio|co- re, fe-|li- ce lo mio|co- re,|
w: le, se|cau- sa'e'il fa-|* to ta-|le,|O|co- re'a- ven- tu-|ra- to O|co- re'a- ven- tu-|ra to,|
 f2 e2 d4 | c2 B2 A4 | G8 :| %20
w: pos- to'in tant'|al- to'a- mo-|re.|
w: per cui re-|stai pia ga-|to.|
V:2
"^2)""^1)" z2 Bc B4 | d2 c2 =B4 | =B2 c2 A3 G | A2 c2 =B4 |[M:2/4] c4 :: z2 G2 |[M:4/4] G6 G2 | %7
w: Se le pe-|ne ch'io sen-|to, vi- ver mi|fan con- ten-|to,|non|si po-|
w: Se'il fort e|du- ro lac-|cio, per cui con-|su- mo'e sfac-|cio,|non|si po-|
 G2 A2 B4 | B4 z2 B2 | G2 A2 =B4 | ^c2 d4 c2 | d4 z2 B2 | A3 A G2 c2- | c2 =B2 c4 | z2 F2 A4 | %15
w: trian dir pe-|ne, sen-|do ca- gion|di be- *|ne, fe-|lmi- ce lo mio|_ co- re,|fe- li-|
w: trian dir no-|do, se'il|ciel di cio|ne lo- *|do, O|ser- vi- tu be-|* a- ta,|O ser-|
 D4 F3 F | E4 D4 | d2 c2 B4 | A2 G4 ^F2 | G8 :| %20
w: ce lo mio|co- re,|pos- to'in tant'|al- to'a- mo-|re.|
w: vi- tu be-|a- ta,|da me si|de- si- a-|ta.|
V:3
"^3)""^1)""^4)" z2 G,A, B,4 | B,2 C2 G,4 | G,2 E,2 F,3 E, | F,2 A,2 G,4 |[M:2/4] C,4 :: _E,4 | %6
w: Se le pe-|ne ch'io sen-|to, vi- ver mi|fan con- ten-|to,|non|
w: Co- si dol-|c'è l'ar- do-|re, del mio fe-|ri- to co-|re,|e'l|
[M:4/4] _E,6 E,2 | _E,2 F,2 B,,4 | B,,2 B,2 A,2 B,2 | C4 G,4 | A,8 | D,4 G,4 | F,3 F, E,3 E, | %13
w: si po-|trian dir pe-|ne, sen- do ca-|gion di|be-|ne,, fe-|li- ce lo mio|
w: lac- cio|che m'ha stret-|to, mi da si|gran di-|let-|to, ch'o-|gnor lo- do mia|
 D,4 C,2 C2 | B,3 B, A,3 A, | G,4 F,4 | G,2 A,2 B,4 | B,,8 | C,4 D,4 | G,,8 :| %20
w: co- re, fe-|li- ce lo mio|co- re,|pos- to'in tant'|al-|to'a- mo-|re.|
w: sor- te, ch'o-|gnor lo- do mia|sor- te,|di cos- si|dol-|ci mor-|te.|

